assets/icons/24px/stroke/arrow-circle-forward-24px.svg

<svg width="24" height="24" viewBox="0 0 24 24" fill="none" xmlns="http://www.w3.org/2000/svg">
<path fill-rule="evenodd" clip-rule="evenodd" d="M16.1135 2.30587C16.4969 1.90831 17.1299 1.89679 17.5275 2.28015L20.1941 4.85152C20.3896 5.03999 20.5 5.29984 20.5 5.57136C20.5 5.84288 20.3896 6.10273 20.1941 6.2912L17.5275 8.86271C17.13 9.24608 16.4969 9.23458 16.1135 8.83703C15.7302 8.43948 15.7417 7.80642 16.1392 7.42305L17.0224 6.57137L12.5 6.57136C8.56459 6.57136 5.5 9.24909 5.5 13.2857C5.5 17.3223 8.56459 20 12.5 20C16.2946 20 18.8778 17.0681 18.8778 13.2857C18.8778 12.7334 19.3255 12.2857 19.8778 12.2857C20.4301 12.2857 20.8778 12.7334 20.8778 13.2857C20.8778 18.0243 17.542 22 12.5 22C7.59886 22 3.5 18.5607 3.5 13.2857C3.5 8.01062 7.59886 4.57136 12.5 4.57136L17.0223 4.57137L16.1392 3.71985C15.7417 3.33649 15.7301 2.70343 16.1135 2.30587Z" fill="white"/>
</svg>

<svg width="24" height="24" fill="none" xmlns="http://www.w3.org/2000/svg"><path fill-rule="evenodd" clip-rule="evenodd" d="M16.113 2.306a1 1 0 0 1 1.415-.026l2.666 2.572a1 1 0 0 1 0 1.44l-2.666 2.57a1 1 0 0 1-1.389-1.439l.883-.852H12.5c-3.935 0-7 2.678-7 6.715 0 4.036 3.065 6.714 7 6.714 3.795 0 6.378-2.932 6.378-6.714a1 1 0 1 1 2 0c0 4.738-3.336 8.714-8.378 8.714-4.901 0-9-3.44-9-8.714 0-5.275 4.099-8.715 9-8.715h4.522l-.883-.851a1 1 0 0 1-.026-1.414z" fill="#fff"/></svg>
